X:1
T:She'll Always Remember
T:She'll Always Remember
C:Johnny Marks
Z:All Rights Reserved
L:1/4
M:4/4
K:F
V:1 treble nm="Piano" snm="Pno."
%%MIDI program 0
%%MIDI control 7 100
%%MIDI control 10 64
V:1
 z3 C |:"Bbm6" _D B2 c |"C7" A G2"F#dim" A |"Gm" B"C" c"Cdim" B A |"Gm7""Bbm6" G3"C7" A | %5
w: Se'll|al- ways re-|mem- ber when|you were on- ly|four, Your|
"F" G A/G/- G F |"C+" E F/E/- E D |"A7" ^C E G B |"Cm6""D7" A3 ^F |"Gm" G D E F |"Bbm" G A2 B | %11
w: fav- 'rite game _ was|play- ing with _ your|sol- diers on the|floor. The|time when you were|sev- en and|
"F" c A G F |"Dm" G3 F |"A" E ^F"D6" A =B |"A" ^c c3 |"Dm" d d"C#m" ^c"E7" =B |"A""Adim" A3 =C | %17
w: tum- bled down the|stairs, An|an- gel up in|hea- ven|ans- wered all her|prayers. Did|
"Bbm6" _D B2 c |"C7" A G2"F#dim" A |"Gm" B"C" c"Cdim" B A |"Gm7""Bbm6" G3"C7" A | %21
w: you ev- er|not- ice that|tear- drop in her|eye the|
"F" c d/c/-"Am" c"C7" B |"F7" A B/A/- A G |"D7" ^F A c _e |"Gm" d3"F#dim" c/=B/ |"Gm" _B B A G | %26
w: first time she _ dis-|cov- ered there _ was|lip- stick on your|tie; Now a|sol- dier man you|
"Bbm6" B A2 G |"F" d c"F7" A F |"D7" E D2 C |"Bbm6" _D B2 c |"C7" A G2"Cdim" A | %31
w: may be, But|you are still her|ba- by, she'll|al- ways re-|mem- ber So|
"Gm7" B d A/F/"C7b9" A |1"F""Bdim""C7" F3 C :|2"F" F4 |] %34
w: don't you ev- er for-|get! She'll|get!|

